X: 09014
T: BRYNNE MARIE
C: Bob McQuillen 5 Mar 92
B: Bob's Note Book 9 #14
%R: waltz
Z: 2019 John Chambers <jc:trillian.mit.edu>
M: 3/4
L: 1/4
K: Em
GF \
| "Em"E>FG | "Bm"FED | "Em"E3- | EGF | "Em"E>FG | "Am"ABc | "Bm"B3- | B2B/c/ |
| "G"dB>G | "Am"A2G/A/ | "Em"BG>E | "Bm"D2E/F/ | "Em"G>AG | "Bm"FED | "Em"E3- | E :|
|: GB \
| "G"d>BG | "Am"AGA | "Em"B3- | Be>d | "Em"BG>B | "Am"AGE | "Bm"D3- | DGF |
| "Em"E>GE | "Em"EGB | "Am"dB>G | "Am"A2G/A/ | "Em"BG>E | "Bm"DEF | "Em"E3- | E :|
%%begintext align
%% This tune is for
%% Brynne Marie Hagy. In memoriam, and
%% with much love. Her mom, Chris Brennan
%% Hagy, is a great favorite of mine.
%%endtext

%%sep 1 1 500

%%sep 1 1 500

